X:1
T:Title
%%score { 1 | 2 } { 3 | 4 }
L:1/8
Q:1/4=120
M:3/4
K:G
V:1 treble nm="Church Organ, Unnamed-000"
V:2 treble 
V:3 bass nm="Church Organ, Unnamed-001"
V:4 bass 
V:1
 d2 B2 G2 | A4 F2 | G6 | G2 A2 B2 | [Gc]4 B2 | A6 | d2 [DB]2 [DG]2 | D4 z2 | A2 B2 c2 | %9
w: By~Felice~de~Giardini,~1769 * *|||||||||
 [DGB]3 [CFA] [B,G]2 | [A,EA]2 [EB]2 [Ec]2 | [^DB]3 [FA] G2 | G2 [FG]2 [EG]2 | [Dd]3 [Fc] [B,GB]2 | %14
w: |||||
 [CEA]2 [B,DG]2 [A,DF]2 | [B,DG]6 |] %16
w: ||
V:2
 D2 B,2 B,2 | E4 D2 | D6 | D2 F2 G2 | E,4 G2 | F6 | [D,F,]2 [G,,G,]2 B,,2 | G,2 F,4 | F2 G2 A2 | %9
 G,3 D, G,2 | C,2 [B,,^G,]2 [A,,A,]2 | [B,,F,]3 [^D,B,] [E,B,E]2 | [E,G,]2 [D,G,]2 [C,G,]2 | %13
 [B,,G,]3 [A,,A,] G,,2 | C,2 D,2 D,2 | G,6 |] %16
V:3
 B,2 D2 D2 | A,4 A,2 | B,6 | B,2[K:treble] D2 D2 | C4 D2 | D6 | D2 z2[K:bass] G,2 | D,6 | %8
 D2 D2 D2 | z6 | z6 | z6 | z6 | z6 | z6 | z6 |] %16
V:4
 G,2 G,2 B,,2 | C,4 D,2 | G,,6 | G,2 F,2 G,2 | E,4 G,2 | D,6 | z6 | z6 | D,2 G,2 F,2 | z6 | z6 | %11
 z6 | z6 | z6 | z6 | z6 |] %16

